src/lib/packages/icons/src/assets/line/presentation-trend-down.svg

<svg width="24" height="24" viewBox="0 0 24 24" fill="none" xmlns="http://www.w3.org/2000/svg">
<path d="M21 2.25H3C2.586 2.25 2.25 2.586 2.25 3C2.25 3.414 2.586 3.75 3 3.75H3.75V13C3.75 15.418 5.082 16.75 7.5 16.75H11.25V18.599L8.58401 20.376C8.23902 20.606 8.14601 21.071 8.37601 21.416C8.60501 21.761 9.06998 21.854 9.41599 21.624L12 19.901L14.584 21.624C14.712 21.709 14.856 21.75 15 21.75C15.242 21.75 15.48 21.633 15.625 21.416C15.855 21.071 15.762 20.606 15.417 20.376L12.751 18.599V16.75H16.501C18.919 16.75 20.251 15.418 20.251 13V3.75H21C21.414 3.75 21.75 3.414 21.75 3C21.75 2.586 21.414 2.25 21 2.25ZM18.75 13C18.75 14.577 18.077 15.25 16.5 15.25H7.5C5.923 15.25 5.25 14.577 5.25 13V3.75H18.75V13ZM7.47 8.18701C7.177 7.89401 7.177 7.41898 7.47 7.12598C7.763 6.83298 8.23801 6.83298 8.53101 7.12598L10.558 9.15295L11.654 7.974C12.216 7.412 13.131 7.412 13.692 7.974L15.25 9.53198V8.84302C15.25 8.42902 15.586 8.09302 16 8.09302C16.414 8.09302 16.75 8.42902 16.75 8.84302V11.343C16.75 11.441 16.73 11.538 16.692 11.63C16.616 11.813 16.47 11.959 16.287 12.036C16.195 12.074 16.098 12.094 16 12.094H13.5C13.086 12.094 12.75 11.758 12.75 11.344C12.75 10.93 13.086 10.594 13.5 10.594H14.189L12.631 9.03601L11.535 10.215C10.973 10.777 10.058 10.777 9.49701 10.215L7.47 8.18701Z" fill="currentColor"/>
</svg>

<svg xmlns="http://www.w3.org/2000/svg" width="24" height="24" fill="none"><path fill="currentColor" d="M21 2.25H3a.75.75 0 0 0 0 1.5h.75V13c0 2.418 1.332 3.75 3.75 3.75h3.75v1.849l-2.666 1.777a.75.75 0 1 0 .832 1.248L12 19.901l2.584 1.723a.748.748 0 0 0 1.041-.208.75.75 0 0 0-.208-1.04l-2.666-1.777V16.75h3.75c2.418 0 3.75-1.332 3.75-3.75V3.75H21a.75.75 0 0 0 0-1.5ZM18.75 13c0 1.577-.673 2.25-2.25 2.25h-9c-1.577 0-2.25-.673-2.25-2.25V3.75h13.5V13ZM7.47 8.187a.75.75 0 1 1 1.061-1.061l2.027 2.027 1.096-1.179a1.442 1.442 0 0 1 2.038 0l1.558 1.558v-.689a.75.75 0 0 1 1.5 0v2.5a.75.75 0 0 1-.463.693.75.75 0 0 1-.287.058h-2.5a.75.75 0 0 1 0-1.5h.689l-1.558-1.558-1.096 1.179a1.442 1.442 0 0 1-2.038 0L7.47 8.187Z"/></svg>
